resources/payment_providers/satchelpay/icon.svg

<svg xmlns="http://www.w3.org/2000/svg" xmlns:xlink="http://www.w3.org/1999/xlink" data-name="Layer 1" width="88" height="152" style=""><rect id="backgroundrect" width="100%" height="100%" x="0" y="0" fill="none" stroke="none" class="" style=""/><defs><style>.cls-1{fill:url(#linear-gradient);}.cls-2{fill:url(#linear-gradient-2);}.cls-3{fill:url(#linear-gradient-3);}.cls-4{fill:url(#linear-gradient-4);}.cls-5{fill:url(#linear-gradient-5);}.cls-6{fill:url(#linear-gradient-6);}.cls-7{fill:#24292f;}</style><linearGradient id="linear-gradient" x1="27.309999465942383" y1="65.83999633789062" x2="54.83000183105469" y2="92.31999969482422" gradientUnits="userSpaceOnUse"><stop offset="0" stop-color="#f9a01b"/><stop offset="0.09" stop-color="#faab18"/><stop offset="0.27" stop-color="#fcb715"/><stop offset="0.5" stop-color="#fdbf14"/><stop offset="1" stop-color="#fdc113"/></linearGradient><linearGradient id="linear-gradient-2" x1="35.380001068115234" y1="61.630001068115234" x2="66.19999694824219" y2="91.27999877929688" gradientUnits="userSpaceOnUse"><stop offset="0" stop-color="#fdc113"/><stop offset="0.5" stop-color="#fdbf14"/><stop offset="0.73" stop-color="#fcb715"/><stop offset="0.91" stop-color="#faab18"/><stop offset="1" stop-color="#f9a01b"/></linearGradient><linearGradient id="linear-gradient-3" x1="58.31999969482422" y1="43.54999923706055" x2="58.31999969482422" y2="173.08999633789062" gradientUnits="userSpaceOnUse"><stop offset="0" stop-color="#f9a01b"/><stop offset="0.58" stop-color="#fcb616"/><stop offset="1" stop-color="#fdc113"/></linearGradient><linearGradient id="linear-gradient-4" x1="29.520000457763672" y1="16.09000015258789" x2="31.1200008392334" y2="107.37000274658203" gradientUnits="userSpaceOnUse"><stop offset="0" stop-color="#fdc113"/><stop offset="0.42" stop-color="#fcb616"/><stop offset="1" stop-color="#f9a01b"/></linearGradient><linearGradient id="linear-gradient-5" x1="24.649999618530273" y1="67.26000213623047" x2="56.790000915527344" y2="88.3499984741211" gradientUnits="userSpaceOnUse"><stop offset="0" stop-color="#22282e" stop-opacity="0.18"/><stop offset="0.27" stop-color="#22282e" stop-opacity="0.04"/><stop offset="1" stop-color="#22282e" stop-opacity="0"/></linearGradient><linearGradient id="linear-gradient-6" x1="788.8099975585938" y1="2508.25" x2="820.9400024414062" y2="2529.340087890625" gradientTransform="translate(852.36 2593) rotate(180)" xlink:href="#linear-gradient-5"/></defs><title>SP2.0 Logotype-Horizontal-Color on Light</title><g class="currentLayer" style=""><title>Layer 1</title><path class="cls-1" d="M44.02815794467926,91.00000125646591 a21.11,21.11 0 0 1 -6.45,15.16 L22.01815794467926,91.00000125646591 a21.06,21.06 0 0 1 0,-30.32 L37.57815794467926,45.480001256465904 a21,21 0 0 0 0,30.31 A21.18,21.18 0 0 1 44.02815794467926,91.00000125646591 z" id="svg_1"/><path class="cls-2" d="M72.44815794467927,76.2100012564659 A21.1,21.1 0 0 1 66.00815794467925,91.37000125646591 L50.44815794467926,106.53000125646591 a21,21 0 0 0 0,-30.32 a21,21 0 0 1 0,-30.31 L66.00815794467925,61.050001256465904 A21.12,21.12 0 0 1 72.44815794467927,76.2100012564659 z" id="svg_2"/><path class="cls-3" d="M81.56815794467926,76.2100012564659 L66.00815794467925,61.050001256465904 a21.06,21.06 0 0 1 0,30.32 L50.44815794467926,106.53000125646591 L34.90815794467926,121.6900012564659 h0 A21.06,21.06 0 0 0 34.90815794467926,152.0000012564659 l15.56,-15.16 h0 L66.00815794467925,121.6900012564659 l15.56,-15.16 a21,21 0 0 0 0,-30.32 z" id="svg_3"/><path class="cls-4" d="M53.15815794467926,0.0000012564659073177609 L37.58815794467926,15.170001256465907 v0 L22.01815794467926,30.320001256465908 L6.468157944679261,45.470001256465906 a21,21 0 0 0 0,30.32 L22.01815794467926,91.00000125646591 a21.08,21.08 0 0 1 0,-30.33 L37.57815794467926,45.470001256465906 L53.12815794467926,30.320001256465908 h0 A21.08,21.08 0 0 0 53.15815794467926,0.0000012564659073177609 z" id="svg_4"/><path class="cls-5" d="M44.02815794467926,91.00000125646591 a21.11,21.11 0 0 1 -6.45,15.16 L22.01815794467926,91.00000125646591 a21.06,21.06 0 0 1 0,-30.32 L37.57815794467926,45.480001256465904 a21,21 0 0 0 0,30.31 A21.18,21.18 0 0 1 44.02815794467926,91.00000125646591 z" id="svg_5"/><path class="cls-6" d="M43.998157944679264,61.00000125646591 a21.11,21.11 0 0 1 6.45,-15.15 L66.00815794467925,61.00000125646591 a21.08,21.08 0 0 1 0,30.33 L50.44815794467926,106.53000125646591 a21,21 0 0 0 0,-30.32 A21.15,21.15 0 0 1 43.998157944679264,61.00000125646591 z" id="svg_6"/></g></svg>

<?xml version="1.0" encoding="UTF-8"?>
<svg style="" data-name="Layer 1" viewBox="0 0 88 152" xmlns="http://www.w3.org/2000/svg" xmlns:xlink="http://www.w3.org/1999/xlink">
<rect class="" width="100%" height="100%" fill="none" style=""/>
<defs>
<style>.cls-1{fill:url(#f);}.cls-2{fill:url(#e);}.cls-3{fill:url(#d);}.cls-4{fill:url(#c);}.cls-5{fill:url(#a);}.cls-6{fill:url(#b);}.cls-7{fill:#24292f;}</style>
<linearGradient id="f" x1="27.31" x2="54.83" y1="65.84" y2="92.32" gradientUnits="userSpaceOnUse">
<stop stop-color="#f9a01b" offset="0"/>
<stop stop-color="#faab18" offset=".09"/>
<stop stop-color="#fcb715" offset=".27"/>
<stop stop-color="#fdbf14" offset=".5"/>
<stop stop-color="#fdc113" offset="1"/>
</linearGradient>
<linearGradient id="e" x1="35.38" x2="66.2" y1="61.63" y2="91.28" gradientUnits="userSpaceOnUse">
<stop stop-color="#fdc113" offset="0"/>
<stop stop-color="#fdbf14" offset=".5"/>
<stop stop-color="#fcb715" offset=".73"/>
<stop stop-color="#faab18" offset=".91"/>
<stop stop-color="#f9a01b" offset="1"/>
</linearGradient>
<linearGradient id="d" x1="58.32" x2="58.32" y1="43.55" y2="173.09" gradientUnits="userSpaceOnUse">
<stop stop-color="#f9a01b" offset="0"/>
<stop stop-color="#fcb616" offset=".58"/>
<stop stop-color="#fdc113" offset="1"/>
</linearGradient>
<linearGradient id="c" x1="29.52" x2="31.12" y1="16.09" y2="107.37" gradientUnits="userSpaceOnUse">
<stop stop-color="#fdc113" offset="0"/>
<stop stop-color="#fcb616" offset=".42"/>
<stop stop-color="#f9a01b" offset="1"/>
</linearGradient>
<linearGradient id="a" x1="24.65" x2="56.79" y1="67.26" y2="88.35" gradientUnits="userSpaceOnUse">
<stop stop-color="#22282e" stop-opacity=".18" offset="0"/>
<stop stop-color="#22282e" stop-opacity=".04" offset=".27"/>
<stop stop-color="#22282e" stop-opacity="0" offset="1"/>
</linearGradient>
<linearGradient id="b" x1="788.81" x2="820.94" y1="2508.2" y2="2529.3" gradientTransform="translate(852.36 2593) rotate(180)" xlink:href="#a"/>
</defs>
<title>SP2.0 Logotype-Horizontal-Color on Light</title>
<g class="currentLayer" style="">
<title>Layer 1</title>
<path class="cls-1" d="m44.028 91a21.11 21.11 0 0 1-6.45 15.16l-15.56-15.16a21.06 21.06 0 0 1 0-30.32l15.56-15.2a21 21 0 0 0 0 30.31 21.18 21.18 0 0 1 6.45 15.21z"/>
<path class="cls-2" d="m72.448 76.21a21.1 21.1 0 0 1-6.44 15.16l-15.56 15.16a21 21 0 0 0 0-30.32 21 21 0 0 1 0-30.31l15.56 15.15a21.12 21.12 0 0 1 6.44 15.16z"/>
<path class="cls-3" d="m81.568 76.21-15.56-15.16a21.06 21.06 0 0 1 0 30.32l-15.56 15.16-15.54 15.16a21.06 21.06 0 0 0 0 30.31l15.56-15.16 15.54-15.15 15.56-15.16a21 21 0 0 0 0-30.32z"/>
<path class="cls-4" d="m53.158 1.2565e-6 -15.57 15.17-15.57 15.15-15.55 15.15a21 21 0 0 0 0 30.32l15.55 15.21a21.08 21.08 0 0 1 0-30.33l15.56-15.2 15.55-15.15a21.08 21.08 0 0 0 0.03-30.32z"/>
<path class="cls-5" d="m44.028 91a21.11 21.11 0 0 1-6.45 15.16l-15.56-15.16a21.06 21.06 0 0 1 0-30.32l15.56-15.2a21 21 0 0 0 0 30.31 21.18 21.18 0 0 1 6.45 15.21z"/>
<path class="cls-6" d="m43.998 61a21.11 21.11 0 0 1 6.45-15.15l15.56 15.15a21.08 21.08 0 0 1 0 30.33l-15.56 15.2a21 21 0 0 0 0-30.32 21.15 21.15 0 0 1-6.45-15.21z"/>
</g>
</svg>
